X: 5955
T: Campbell's
R: barndance
M: 4/4
K: Gmajor
|:A|(B2B)A BAGA|BGE2 (D2 D2)|G3G A2 GA|BAAG A2 GA|
(B2B)A BAGA|BGE2 (D2 D2)|G3G A2 GA|B2 G2 G2 z:|
|:A|B(d d)B d4|e(g g)e (g2 g)e|(d2 d)e dBGA|BAAG A2 GA|
B(d d)B d4|e(g g)e (g2 g)e|(d2 d)e dBGA|B2 A2 G2 z:|

